X:171
T: FLUECHTIGER ALS WIND UND WELLE
N: F0307
O: Europa, Mitteleuropa, Deutschland
R: Jugend - Lied, Belehrung, Moral, Lebenslauf
M: 4/4
L: 1/8
K: Bb
 | b2dcB2F2 | d2feedd2
c3=Bcdec | b2dcB2z2
b2dcB2F2 | d2feedd2
c3=Bcdec | b2dcB2z2
c2ABc2AB | cedff2e2
d3ef3d | gfedd2cz
b2dcB2F2 | d2feedd2
c3=Bcdec | b2dcB2z2

